assets/features/channel/southeast-asia/truemoney.svg

<svg width="80" height="80" viewBox="0 0 80 80" fill="none" xmlns="http://www.w3.org/2000/svg">
<rect x="0.5" y="0.5" width="79" height="79" rx="7.5" fill="white"/>
<rect x="0.5" y="0.5" width="79" height="79" rx="7.5" stroke="#EEEEEE"/>
<path d="M63.1751 28.834H50.59C49.7685 28.834 49.0366 29.3538 48.7662 30.1296C48.1666 31.851 47.4909 33.7906 46.7939 35.7918L46.7941 35.7922C46.7725 35.8542 46.7509 35.9161 46.7291 35.9782C46.7142 36.0209 46.6992 36.0635 46.6844 36.1062C44.5089 42.3507 42.1526 49.1113 41.2567 51.6719C41.1527 51.9908 41.0337 52.3546 40.8894 52.7283C40.8638 52.7946 40.7398 53.1105 40.5121 53.4221C40.4729 53.4756 40.4344 53.5237 40.3956 53.5687C40.3299 53.6475 40.246 53.7403 40.1232 53.8362C40.1162 53.8417 40.1093 53.8463 40.1023 53.8516C40.0598 53.8846 40.0122 53.9185 39.9578 53.9518C39.8236 54.0338 39.7097 54.0759 39.6658 54.0915C39.6592 54.0937 39.6532 54.0957 39.6469 54.0977C39.646 54.0981 39.6447 54.0984 39.6438 54.0988C39.6398 54.1003 39.636 54.1014 39.6321 54.1026C39.6292 54.1036 39.6263 54.1047 39.6235 54.1056C39.462 54.1596 39.3137 54.1816 39.1929 54.1887C44.2353 54.1887 49.2776 54.1887 54.32 54.1887C54.4178 54.1887 54.5154 54.1777 54.6102 54.1534C54.9779 54.0589 55.7645 53.7178 56.0957 52.5029L63.9538 29.9291C64.1396 29.3933 63.7421 28.834 63.1751 28.834Z" fill="#FF7B00"/>
<path d="M25.9314 49.9033C25.9347 49.894 25.938 49.8846 25.9413 49.8753C25.9508 49.848 25.9605 49.8207 25.9701 49.7933C25.9856 49.7488 26.0012 49.7045 26.0167 49.66C26.038 49.5994 26.0592 49.5388 26.0805 49.4782C26.107 49.4024 26.1337 49.3264 26.1603 49.2506C26.192 49.1603 26.2236 49.0701 26.2553 48.9798C26.2917 48.8762 26.3282 48.7723 26.3644 48.6687C26.4053 48.5524 26.4461 48.4362 26.4869 48.3199C26.5318 48.1919 26.5766 48.0641 26.6215 47.9361C26.6702 47.7975 26.7187 47.6589 26.7674 47.5203C26.8196 47.3718 26.8716 47.2234 26.9238 47.075C26.9791 46.9176 27.0342 46.7603 27.0895 46.6028C27.1475 46.4375 27.2056 46.2722 27.2636 46.1068C27.3242 45.9344 27.3846 45.7619 27.4453 45.5894C27.5079 45.4107 27.5707 45.2322 27.6333 45.0535C27.6979 44.8697 27.7624 44.6856 27.827 44.5016C27.8931 44.3134 27.9592 44.125 28.0253 43.9368C28.0927 43.7451 28.1599 43.5532 28.2273 43.3615C28.2954 43.1672 28.3637 42.973 28.4318 42.7787C28.5006 42.5828 28.5693 42.3869 28.6381 42.191C28.7071 41.9943 28.7762 41.7977 28.8452 41.601C28.9142 41.4046 28.9831 41.2081 29.0521 41.0116C29.1206 40.8163 29.1892 40.6209 29.2577 40.4254C29.3256 40.232 29.3934 40.0385 29.4613 39.8451C29.5281 39.6547 29.595 39.4641 29.6618 39.2737C29.7274 39.0869 29.7929 38.9004 29.8583 38.7136C29.9222 38.5316 29.9861 38.3498 30.0498 38.1678C30.1117 37.9915 30.1736 37.8152 30.2354 37.6388C30.2949 37.4691 30.3546 37.2994 30.4141 37.1295C30.4711 36.9672 30.528 36.8048 30.585 36.6424C30.639 36.4885 30.693 36.3345 30.747 36.1807C30.7977 36.036 30.8486 35.8914 30.8993 35.7465C30.9466 35.612 30.9938 35.4776 31.0409 35.343C31.0843 35.2196 31.1275 35.0962 31.1709 34.9728C31.2099 34.8615 31.2491 34.75 31.2882 34.6386C31.3228 34.5401 31.3574 34.4416 31.3919 34.3431C31.4215 34.2585 31.4514 34.1738 31.481 34.089C31.5056 34.019 31.5301 33.9491 31.5546 33.8792C31.5946 33.7653 31.6304 33.6485 31.6835 33.5397L31.6883 33.534L31.6903 33.5322L31.6918 33.5298L31.6945 33.5274C31.7048 33.5069 31.7092 33.489 31.7209 33.4692C31.8249 33.24 32.0997 32.9924 32.2116 32.9571L30.5079 27.2302C30.2951 26.5011 29.5959 26 28.8674 26H16.8462C16.2805 26 15.8744 26.5445 16.0357 27.0869L22.8031 49.8303C23.0823 50.6374 23.6891 51.0566 24.3094 51.0876C24.3097 51.0876 24.3101 51.0876 24.3105 51.0876C24.9559 51.1154 25.6137 50.7223 25.9314 49.9033Z" fill="#FF000F"/>
<path d="M32.2107 32.959C32.2111 32.9587 32.2119 32.9579 32.2125 32.9575L32.2065 32.9613C32.2079 32.9604 32.2094 32.9598 32.2107 32.959Z" fill="#AA0017"/>
<path d="M36.9062 50.9919C36.8782 50.8976 36.8502 50.8033 36.8224 50.7092C36.8079 50.6607 36.7936 50.6122 36.7792 50.5636L33.8789 40.8204L31.8506 34.0065C31.775 33.7523 31.8002 33.498 31.9075 33.2897C31.9334 33.2395 31.9643 33.1924 31.9993 33.1483C32.0035 33.143 32.0071 33.1371 32.0115 33.1318C32.0608 33.0727 32.1186 33.0201 32.184 32.9753C32.1912 32.9703 32.199 32.9659 32.2064 32.9612L32.212 32.9575C32.1002 32.9929 31.8253 33.2404 31.7213 33.4696C31.7096 33.4894 31.6988 33.5097 31.6886 33.5302C31.6869 33.5335 31.6854 33.5368 31.6838 33.5399C31.6307 33.6487 31.5948 33.7653 31.5549 33.8794C31.5304 33.9493 31.5058 34.0193 31.4813 34.0892C31.4516 34.174 31.4218 34.2586 31.3921 34.3434C31.3575 34.4419 31.3229 34.5404 31.2885 34.6389C31.2493 34.7502 31.2103 34.8617 31.1711 34.973C31.1277 35.0964 31.0845 35.2199 31.0411 35.3433C30.9939 35.4778 30.9467 35.6122 30.8996 35.7468C30.8489 35.8914 30.798 36.0361 30.7473 36.1809C30.6932 36.3349 30.6392 36.4889 30.5852 36.6427C30.5283 36.8051 30.4713 36.9673 30.4144 37.1297C30.3549 37.2994 30.2952 37.4692 30.2357 37.6391C30.1738 37.8154 30.1119 37.9917 30.05 38.1681C29.9861 38.3501 29.9224 38.5319 29.8585 38.7139C29.793 38.9006 29.7274 39.0872 29.6621 39.274C29.5952 39.4644 29.5284 39.655 29.4616 39.8454C29.3936 40.0387 29.3259 40.2321 29.258 40.4256C29.1895 40.621 29.1208 40.8164 29.0524 41.0119C28.9833 41.2084 28.9145 41.4048 28.8455 41.6013C28.7764 41.7979 28.7074 41.9946 28.6384 42.1912C28.5697 42.3871 28.5009 42.583 28.432 42.779C28.3639 42.9732 28.2956 43.1675 28.2275 43.3617C28.1601 43.5534 28.0929 43.7453 28.0256 43.937C27.9595 44.1253 27.8934 44.3137 27.8273 44.5019C27.7628 44.6859 27.6982 44.8697 27.6335 45.0537C27.5709 45.2324 27.5081 45.411 27.4455 45.5897C27.3849 45.7621 27.3245 45.9346 27.2639 46.1071C27.2058 46.2724 27.1478 46.4378 27.0897 46.6031C27.0345 46.7606 26.9793 46.9178 26.924 47.0753C26.8719 47.2238 26.8199 47.3723 26.7677 47.5206C26.719 47.6592 26.6705 47.7978 26.6218 47.9364C26.5769 48.0644 26.532 48.1922 26.4872 48.3202C26.4464 48.4364 26.4055 48.5527 26.3647 48.669C26.3283 48.7726 26.2918 48.8764 26.2556 48.98C26.2239 49.0703 26.1922 49.1606 26.1605 49.2508C26.134 49.3266 26.1073 49.4026 26.0807 49.4784C26.0595 49.539 26.0382 49.5996 26.017 49.6602C26.0014 49.7047 25.9859 49.749 25.9703 49.7935C25.9608 49.8208 25.9511 49.8481 25.9416 49.8756C25.9383 49.8849 25.935 49.8942 25.9317 49.9036C25.6142 50.7227 24.9563 51.1157 24.3111 51.088C24.3107 51.088 24.3104 51.088 24.31 51.088C24.2979 51.0891 24.286 51.0898 24.2747 51.0902H36.9357C36.9256 51.0574 36.9159 51.0247 36.9062 50.9919Z" fill="#AA0017"/>
<path d="M46.7937 35.7916C46.6854 35.4007 46.578 35.0094 46.4743 34.6172C46.389 34.2946 46.2889 33.983 46.1147 33.6955C45.9443 33.4143 45.7128 33.1711 45.4241 33.0102C45.3435 32.9653 45.2593 32.9271 45.1725 32.8963C45.0359 32.848 44.804 32.813 44.6591 32.813H32.7407C32.5329 32.813 32.3546 32.8676 32.2105 32.9589C32.2092 32.9596 32.2077 32.9604 32.2064 32.9611C32.1989 32.9659 32.1912 32.9703 32.1841 32.9752C32.1187 33.0201 32.0611 33.0726 32.0116 33.1318C32.0072 33.1371 32.0038 33.1429 31.9994 33.1482C31.9644 33.1924 31.9334 33.2394 31.9076 33.2896C31.8003 33.4979 31.7751 33.7523 31.8507 34.0064L33.879 40.8203L36.7792 50.5636L36.9244 51.0511L37.4756 52.9709C37.5113 53.0729 37.8033 53.8651 38.6069 54.1158C39.0017 54.239 39.3488 54.1781 39.5257 54.1326C39.5524 54.1262 39.5856 54.1173 39.6235 54.1054C39.6262 54.1045 39.6293 54.1035 39.6321 54.1026C39.6368 54.101 39.6419 54.0993 39.6469 54.0977C39.6531 54.0957 39.6593 54.0937 39.6657 54.0915C39.7099 54.0761 39.8236 54.0338 39.958 53.9518C40.0125 53.9184 40.06 53.8847 40.1024 53.8516C40.1894 53.784 40.2537 53.72 40.3015 53.6714C40.3333 53.6392 40.3644 53.605 40.3958 53.5689C40.4346 53.524 40.473 53.4759 40.5122 53.4222C40.74 53.1106 40.8639 52.7946 40.8896 52.7285C41.0337 52.3548 41.1529 51.991 41.2568 51.672C41.314 51.497 41.3665 51.3353 41.416 51.1934C41.541 50.8356 41.6659 50.4777 41.7908 50.1199C41.9478 49.6699 42.1049 49.22 42.262 48.77C42.4429 48.2516 42.624 47.7335 42.8049 47.2151C43.0014 46.6525 43.1978 46.0896 43.3945 45.527C43.5983 44.9436 43.8019 44.3603 44.0057 43.7769C44.2083 43.1967 44.4108 42.6165 44.6135 42.0364C44.8067 41.4833 44.9999 40.93 45.193 40.3769C45.3684 39.8744 45.5438 39.3722 45.7192 38.8698C45.8687 38.4421 46.0179 38.0144 46.1673 37.5867C46.2823 37.2575 46.3973 36.9282 46.5122 36.599C46.5695 36.4348 46.6268 36.2706 46.6843 36.1063C46.6992 36.0637 46.7142 36.021 46.729 35.9783C46.7506 35.9163 46.7724 35.8544 46.794 35.7923C46.7938 35.7918 46.7937 35.7916 46.7937 35.7916Z" fill="#FFCD00"/>
</svg>

<svg xmlns="http://www.w3.org/2000/svg" width="80" height="80" fill="none" viewBox="0 0 80 80"><rect width="79" height="79" x=".5" y=".5" fill="#fff" rx="7.5"/><rect width="79" height="79" x=".5" y=".5" stroke="#eee" rx="7.5"/><path fill="#ff7b00" d="M63.175 28.834H50.59c-.822 0-1.553.52-1.824 1.296l-1.972 5.662-.065.186-.045.128c-2.175 6.245-4.531 13.005-5.427 15.566-.104.319-.223.683-.368 1.056-.025.067-.15.383-.377.694a2.4 2.4 0 0 1-.389.414l-.02.016a1.6 1.6 0 0 1-.437.24l-.02.006h-.002l-.012.005q-.005 0-.008.003c-.162.054-.31.076-.431.083H54.32q.147 0 .29-.036c.368-.094 1.154-.435 1.486-1.65l7.858-22.574a.825.825 0 0 0-.779-1.095"/><path fill="#ff000f" d="m25.931 49.903.01-.028.03-.082.046-.133.064-.182.08-.227.094-.271.232-.66.135-.384.145-.416.157-.445.166-.472.174-.496.181-.518.188-.535.194-.552.198-.565.202-.575.205-.583.206-.588.207-.59.207-.59.206-.586.203-.58.2-.571.197-.56.192-.546.185-.53.18-.508.17-.488.162-.461.152-.434.142-.404.13-.37.117-.334.104-.296.089-.254.074-.21c.04-.114.075-.23.128-.34l.005-.005.002-.002.002-.002.003-.003c.01-.02.014-.038.026-.058.104-.229.379-.477.49-.512l-1.703-5.727a1.74 1.74 0 0 0-1.64-1.23H16.845a.846.846 0 0 0-.81 1.087l6.767 22.743c.28.807.886 1.227 1.506 1.258h.002c.645.027 1.303-.366 1.62-1.185"/><path fill="#aa0017" d="m32.21 32.959.002-.002-.006.004z"/><path fill="#aa0017" d="m36.906 50.992-.084-.283-.043-.145-2.9-9.744-2.028-6.813a.96.96 0 0 1 .056-.717 1 1 0 0 1 .092-.142q.007-.007.012-.016a1 1 0 0 1 .173-.157l.022-.014.006-.003c-.112.035-.387.282-.49.512l-.033.06-.005.01c-.053.109-.09.225-.13.34l-.073.21-.089.253-.104.296-.117.334-.13.37-.141.404-.153.434-.162.462-.17.487-.18.51-.185.528-.192.546-.196.56-.2.571-.204.58-.206.587-.206.59-.208.59-.206.587-.204.583-.202.575-.199.565-.194.552-.187.536-.182.517-.174.496-.166.472-.156.446-.146.415-.135.384-.122.349-.11.311-.095.27-.08.228q-.03.092-.063.182l-.047.134-.028.082-.01.028c-.318.819-.976 1.212-1.62 1.184h-.002l-.035.002h12.66z"/><path fill="#ffcd00" d="M46.794 35.792q-.164-.587-.32-1.175c-.085-.322-.185-.634-.36-.921a1.9 1.9 0 0 0-.69-.686 2 2 0 0 0-.252-.114 2 2 0 0 0-.513-.083H32.741a1 1 0 0 0-.53.146l-.005.002-.022.014a1 1 0 0 0-.172.157l-.013.016a1 1 0 0 0-.091.142.96.96 0 0 0-.057.716l2.028 6.814 2.9 9.744.145.487.552 1.92c.035.102.327.894 1.13 1.145a1.7 1.7 0 0 0 1.04-.018l.02-.006a1.6 1.6 0 0 0 .436-.24 2 2 0 0 0 .294-.283q.058-.067.116-.147c.228-.311.352-.627.378-.694a21 21 0 0 0 .367-1.056q.085-.264.159-.479l.375-1.073.471-1.35.543-1.555.59-1.688.61-1.75.608-1.74.58-1.66.526-1.507.448-1.283.517-1.48.045-.129z"/></svg>
